X: 100439
T: John Dwyer's
Z: B.Black
R: reel
M: 4/4
L: 1/8
N: Thanks to Philippe Varlet for the ID.
K: G
Bc | dB (3BAB GEDE | G2 BG dGBG | AGAB AGED |\
(3EFG AB c2 Bc |
dB (3BAB GEDE | G2 BG dGBG | B2 BA BedB |\
AGAB G2 :|
ga | bggg bggg | afff afff | bggg bggg |\
eaa^g a2 ga |
bg (3gfg agef | gfge dBGA | B2 BA BedB |\
AGAB G2 :|
